!!!ONB: MCCC : IJH0452_03 : Extracted Monophonic Melody
!!!COM: Haydn, Joseph
!!!OPR: String Quartet in F major
!!!OMV: 3
!!!SCT: Hob.III:26 ; Op.17 No.2
!!!ODT: 1771///
**kern
*thru
*k[b-e-]
*B-:
*clefG
*M4/4
2.ff
16ee-
16dd
16cc
16b-
=1
8ff
8ee-
4.ee-
8ee-
8ff
8gg
=2
8gg
8cc
4.cc
8cc
8dd
8ee-
=3
12ee-
12dd
12ee-
4.dd
8ff
8ff
8bb-
=4
8bb-
8cc
4.cc
8cc
8dd
8ee-
=5
8dd
16cc
16b-
4b-
2r
=6
3..f[
24f]
8f
8g
8d
=7
8f
8e-
4.e-
8e-
8f
8g
=8
8g
8c
4.c
8c
8d
8e-
=9
8e-
16d
16e-
4.d
8f
8f
8b-
=10
8b-
8c
4.c
8c
8d
8e-
=11
8d
16c
16B-
4B-
2r
=12
2.ff
16ee
16ff
16gg
16ff
=13
8ff
8cc
3cc
12dd
12ee
12ff
12gg
12aa
=14
3..bb-
12gg
12ee
12cc
12dd
12b-
=15
4b-
4a
2r
=16
2.f
16e
16f
16g
16f
=17
8f
8c
3c
12d
12e
12f
12g
12a
=18
3..b-
12g
12e
12c
12d
12B-
=19
4B-
8A
8f
4.f
8e-
=20
12e-
12c#
12d
3d
12f#
12g
12a
12b-
12g
=21
2e
2r
=22
1ee
=23
12ff
12ccc
12aa
12ff
12cc
12a
12f
12c
12A
12ff
12ff
12ff
=24
1ee
=25
12ff
12ccc
12aa
12ff
12cc
12a
12f
12c
12A
12ff
12ff
12ff
=26
1ccc
=27
12bb-
12aa
12gg
12gg
12gg
12gg
12gg
12gg
12gg
12gg
12bb-
12gg
=28
12ee
12dd
12cc
12cc
12cc
12cc
12cc
12cc
12cc
12cc
12ee
12cc
=29
12cc
12ff
12cc
12cc
12cc
12cc
12cc
12gg
12cc
12cc
12cc
12cc
=30
12cc
12aa
12gg
12ff
12ee
12ff
12cc
12ff
12ee
12ee-
12dd
12cc#
=31
12dd
12bb-
12aa
12gg
12ccc#
12ddd
12aa
12bb-
12ff#
12gg
12bb-
12dd
=32
12ff
12ee
12gg
12ccc
12gg
12ee
12ff
12fff
12eee
12eee-
12ddd
12ccc#
=33
12ddd
12fff
12aa
12bb-
12ddd
12b
4cc
4gg
=34
12ff
12cc
12cc
12cc
12cc
12cc
12b
12cc
12cc
12cc
12cc
12cc
=35
3..cc
12b
12cc
12dd-
12cc
12b
=36
3..cc
12b
12cc
12dd-
12cc
12b
=37
2cc
2bb-
=38
3..aa
12fff
12fff
12fff
12fff
12fff
=39
4.fff
8aa
2gg
=40
1ff
=41
1ee-
=42
1dd-
=43
1bb-[
=44
1bb-]
=45
1ggg
=46
2fff#
2ddd
=47
2ccc#
2gg
=48
2ff#
2dd
=49
2cc#
2g
=50
2f#
4d
4d
=51
2d
2r
=52
2.ff
16ee-
16dd
16cc
16b-
=53
8ff
8ee-
4.ee-
8ee-
8ff
8gg
=54
8gg
8cc
4.cc
8cc
8dd
8ee-
=55
12ee-
12dd
12ee-
4.dd
8ff
8ff
8bb-
=56
8bb-
8cc
4.cc
8cc
8dd
8ee-
=57
8dd
16cc
16b-
4b-
2r
=58
3..f[
24f]
8f
8g
8d
=59
8f
8e-
4.e-
8e-
8f
8g
=60
8g
8c
4.c
8c
8d
8e-
=61
8e-
16d
16e-
4.d
8f
8f
8b-
=62
8b-
8c
4.c
8c
8d
8e-
=63
8e-
8d
4.d
8f
8a-
8f
=64
12f
12d
12e-
4.e-
8g
8b-
8g
=65
12e
12g
12f
4.f
8a-
8cc
8a-
=66
8a-
8g
8g
8ee-
4.ee-
16dd
16cc
=67
2a
2r
=68
1a
=69
12b-
12ff
12dd
12b-
12f
12d
12B-
12d
12f
12b-
12dd
12ff
=70
1ee-
=71
12dd
12bb-
12ff
12dd
12b-
12f
12d
12B-
12d
12f
12b-
12dd
=72
1ff
=73
12ee-
12dd
12cc
12cc
12cc
12cc
12cc
12cc
12cc
12cc
12ee-
12cc
=74
12a
12g
12f
12f
12f
12f
12f
12f
12f
12f
12a
12f
=75
12f
12b-
12f
12f
12f
12f
12f
12cc
12f
12f
12f
12f
=76
12f
12dd
12cc
12b-
12a
12b-
12f
12b-
12a
12a-
12g
12f#
=77
12g
12ee-
12dd
12cc
12ff#
12gg
12dd
12ee-
12b
12cc
12ee-
12g
=78
12b-
12a
12cc
12ff
12cc
12a
12b-
12bb-
12aa
12aa-
12gg
12ff#
=79
12gg
12bb-
12dd
12ee-
12gg
12e
4f
4cc
=80
12b-
12ff
12ff
12ff
12ff
12ff
12ee
12ff
12ff
12ff
12ff
12ff
=81
3..ff
12ee
12ff
12gg-
12ff
12ee
=82
3..ff
12ee
12ff
12gg-
12ff
12ee
=83
2ff
2eee-
=84
3..ddd
12dd
12dd
12dd
12dd
12dd
=85
2dd
2cc
=86
3..b-
12b
12cc
12dd
12ee-
12a
=87
3..b-
12b
12cc
12dd
12ee-
12e-
=88
2e-
4d
4r
==
*-
